**kern	**silbe	**harmony	**phrase	**leadinstrument	**rhyme	**timestamp	**harte
*ICvox	*	*M4/4	*	*	*	*	*M4/4
*VRlead	*	*	*	*	*	*	*
*Hstimme	*	*	*	*	*	*	*
*B-:	*	*B-:	*	*	*	*	*B-:
*M4/4	*	*	*	*	*	*	*
*clefG2	*	*	*	*	*	*	*
r;	.	1r;	.	r	.	0	N.C.
=1	=1	=1	=1	=1	=1	=1	=1
*>Letter>A	*>Letter>A	*>Letter>A	*>Letter>A	*>Letter>A	*>Letter>A	*>Letter>A	*>Letter>A
*>Label>Intro	*>Label>Intro	*>Label>Intro	*>Label>Intro	*>Label>Intro	*>Label>Intro	*>Label>Intro	*>Label>Intro
1r	.	2B-M	newline	piano	.	0.209	B-:maj
.	.	2B-MM	.	piano	.	1.743	B-:maj7
=2	=2	=2	=2	=2	=2	=2	=2
1r	.	2A-M	.	piano	.	3.277	A-:maj6/2
.	.	2B-MM	.	piano	.	4.811	B-:maj7
=3	=3	=3	=3	=3	=3	=3	=3
1r	.	2B-M	newline	piano	.	6.346	B-:maj
.	.	2B-MM	.	piano	.	7.895	B-:maj7
=4	=4	=4	=4	=4	=4	=4	=4
1r	.	2A-M	.	piano	.	9.444	A-:maj6/2
.	.	2B-MM	.	piano	.	10.993	B-:maj7
=5	=5	=5	=5	=5	=5	=5	=5
*>Letter>B	*>Letter>B	*>Letter>B	*>Letter>B	*>Letter>B	*>Letter>B	*>Letter>B	*>Letter>B
*>Label>Verse	*>Label>Verse	*>Label>Verse	*>Label>Verse	*>Label>Verse	*>Label>Verse	*>Label>Verse	*>Label>Verse
2r	.	1Gm	newline	voice	.	12.542	G:min
8g	Oh	.	.	.	.	.	.
[8d	no	.	.	.	A	.	.
4d]	_	.	.	.	.	.	.
=6	=6	=6	=6	=6	=6	=6	=6
4r	.	1Dm	.	voice	.	15.581	D:min
8r	.	.	.	.	.	.	.
8f	do-	.	.	.	.	.	.
8g	-n't	.	.	.	.	.	.
4.d	go	.	.	.	A	.	.
=7	=7	=7	=7	=7	=7	=7	=7
2.r	.	1E-M	newline	voice	.	18.62	E-:maj
8G	it's	.	.	.	.	.	.
8G	ho-	.	.	.	.	.	.
=8	=8	=8	=8	=8	=8	=8	=8
4B-	-urs	1B-M	.	voice	.	21.736	B-:maj
8c	til	.	.	.	.	.	.
[8d	dawn	.	.	.	B	.	.
8d]	_	.	.	.	.	.	.
8r	.	.	.	.	.	.	.
4r	.	.	.	.	.	.	.
=9	=9	=9	=9	=9	=9	=9	=9
2r	.	1E-M	newline	voice	.	24.852	E-:maj
6r	.	.	.	.	.	.	.
6G	and	.	.	.	.	.	.
6B-	there's	.	.	.	.	.	.
=10	=10	=10	=10	=10	=10	=10	=10
8d	no	2.B-M	.	voice	.	27.905	B-:maj/3
[8f	one	.	.	.	B	.	.
4f]	_	.	.	.	.	.	.
4.r	.	.	.	.	.	.	.
.	.	4B-M	.	voice	.	30.195	B-:maj
[8f	who'd	.	.	.	.	.	.
=11	=11	=11	=11	=11	=11	=11	=11
16f]	_	1Cm	newline	voice	.	30.958	C:min
8.e-	ra-	.	.	.	.	.	.
8d	-ther	.	.	.	.	.	.
[8c	be	.	.	.	.	.	.
4c_	_	.	.	.	.	.	.
8c]	_	.	.	.	.	.	.
16f	with	.	.	.	.	.	.
[16f	you	.	.	.	.	.	.
=12	=12	=12	=12	=12	=12	=12	=12
4f]	_	2E-M	.	voice	.	34.114	E-:maj/2
4r	.	.	.	.	.	.	.
2r	.	2FM	.	voice	.	35.691	F:maj
=13	=13	=13	=13	=13	=13	=13	=13
2r	.	1Gm	newline	voice	.	37.269	G:min
8g	I	.	.	.	.	.	.
[8d	know	.	.	.	A	.	.
4d]	_	.	.	.	.	.	.
=14	=14	=14	=14	=14	=14	=14	=14
2r	.	1Dm	.	voice	.	40.426	D:min
8f	you	.	.	.	.	.	.
[8d	know	.	.	.	A	.	.
4d]	_	.	.	.	.	.	.
=15	=15	=15	=15	=15	=15	=15	=15
2r	.	1E-M	newline	voice	.	43.584	E-:maj
8r	.	.	.	.	.	.	.
16G	o-	.	.	.	.	.	.
16B-	-ther	.	.	.	.	.	.
8B-	girls	.	.	.	.	.	.
[8c	like	.	.	.	.	.	.
=16	=16	=16	=16	=16	=16	=16	=16
8c]	_	1B-M	.	voice	.	46.732	B-:maj
[8d	me	.	.	.	.	.	.
4d]	_	.	.	.	.	.	.
2r	.	.	.	.	.	.	.
=17	=17	=17	=17	=17	=17	=17	=17
2r	.	1E-M	newline	voice	.	49.88	E-:maj
8r	.	.	.	.	.	.	.
8B-	I	.	.	.	.	.	.
16B-	let	.	.	.	.	.	.
[16B-	you	.	.	.	.	.	.
16B-]	_	.	.	.	.	.	.
[16B-	take	.	.	.	.	.	.
=18	=18	=18	=18	=18	=18	=18	=18
16B-]	_	1B-M	.	voice	.	52.993	B-:maj/3
8.B-	my	.	.	.	.	.	.
4f	love	.	.	.	.	.	.
4r	.	.	.	.	.	.	.
8r	.	.	.	.	.	.	.
16f	kno-	.	.	.	.	.	.
16f	-wing	.	.	.	.	.	.
=19	=19	=19	=19	=19	=19	=19	=19
6e-	you	1Cm	newline	voice	.	56.105	C:min
6d	don't	.	.	.	.	.	.
[6c	love	.	.	.	.	.	.
8c]	_	.	.	.	.	.	.
8f	_	.	.	.	.	.	.
[4f	me	.	.	.	.	.	.
=20	=20	=20	=20	=20	=20	=20	=20
2f_	_	2E-M	.	voice	.	59.327	E-:maj/2
8f]	_	2FM	.	voice	.	60.939	F:maj
8f	but	.	.	.	.	.	.
16f	if	.	.	.	.	.	.
16b-	_	.	.	.	.	.	.
[8a	I	.	.	.	.	.	.
=21	=21	=21	=21	=21	=21	=21	=21
*>Letter>C	*>Letter>C	*>Letter>C	*>Letter>C	*>Letter>C	*>Letter>C	*>Letter>C	*>Letter>C
*>Label>Chorus	*>Label>Chorus	*>Label>Chorus	*>Label>Chorus	*>Label>Chorus	*>Label>Chorus	*>Label>Chorus	*>Label>Chorus
2a]	_	1B-MM	newline	voice	.	62.55	B-:maj7
8g	could	.	.	.	.	.	.
8a	reach	.	.	.	.	.	.
[4f	you	.	.	.	.	.	.
=22	=22	=22	=22	=22	=22	=22	=22
8f]	_	1E-MM	.	voice	.	65.8	E-:maj7
8d	some	.	.	.	.	.	.
2g	way	.	.	.	C	.	.
8r	.	.	.	.	.	.	.
16f	If	.	.	.	.	.	.
[16b-	I	.	.	.	.	.	.
=23	=23	=23	=23	=23	=23	=23	=23
8b-]	_	1B-MM	newline	voice	.	69.05	B-:maj7
[8a	knew	.	.	.	.	.	.
8.a]	_	.	.	.	.	.	.
16g	the	.	.	.	.	.	.
4a	mag-	.	.	.	.	.	.
8f	-ic	.	.	.	.	.	.
8r	.	.	.	.	.	.	.
=24	=24	=24	=24	=24	=24	=24	=24
8.r	.	1E-MM	.	voice	.	72.208	E-:maj7
[16f	it	.	.	.	.	.	.
16f]	_	.	.	.	.	.	.
16B-	would	.	.	.	.	.	.
[16g	take	.	.	.	C	.	.
16g_	_	.	.	.	.	.	.
8g]	_	.	.	.	.	.	.
8r	.	.	.	.	.	.	.
8.r	.	.	.	.	.	.	.
16d	to	.	.	.	.	.	.
=25	=25	=25	=25	=25	=25	=25	=25
8.f	love	1Dm	newline	voice	.	75.366	D:min
[16f	you	.	.	.	.	.	.
4f]	_	.	.	.	.	.	.
8r	.	.	.	.	.	.	.
16d	good	.	.	.	.	.	.
16e-	en-	.	.	.	.	.	.
8f	-ough	.	.	.	.	.	.
8r	.	.	.	.	.	.	.
=26	=26	=26	=26	=26	=26	=26	=26
8r	.	1Gm	.	voice	.	78.492	G:min
16d	on	.	.	.	.	.	.
16c	the	.	.	.	.	.	.
16d	out-	.	.	.	.	.	.
8B-	_	.	.	.	.	.	.
[16B-	-side	.	.	.	D	.	.
4B-]	_	.	.	.	.	.	.
4r	.	.	.	.	.	.	.
=27	=27	=27	=27	=27	=27	=27	=27
16r	.	1Dm	newline	voice	.	81.618	D:min
16d	and	.	.	.	.	.	.
[8f	make	.	.	.	.	.	.
8f]	_	.	.	.	.	.	.
16f	you	.	.	.	.	.	.
16f	feel	.	.	.	.	.	.
16g	_	.	.	.	.	.	.
16f	_	.	.	.	.	.	.
8f	it	.	.	.	.	.	.
4r	.	.	.	.	.	.	.
=28	=28	=28	=28	=28	=28	=28	=28
8r	.	1Gm	.	voice	.	84.758	G:min
16d	on	.	.	.	.	.	.
16c	the	.	.	.	.	.	.
16d	in-	.	.	.	.	.	.
8B-	_	.	.	.	.	.	.
[16B-	-side	.	.	.	D	.	.
4B-]	_	.	.	.	.	.	.
4r	.	.	.	.	.	.	.
=29	=29	=29	=29	=29	=29	=29	=29
8c	may-	1Cm	newline	voice	.	87.897	C:min
16d	-be	.	.	.	.	.	.
16d	I	.	.	.	.	.	.
4e-	_	.	.	.	.	.	.
8d	could	.	.	.	.	.	.
8c	make	.	.	.	.	.	.
8B-	you	.	.	.	.	.	.
[8c	stay	.	.	.	C	.	.
=30	=30	=30	=30	=30	=30	=30	=30
2c]	_	2E-M	.	voice	.	91.039	E-:maj/2
2r	.	2FM	.	voice	.	92.61	F:maj
=31	=31	=31	=31	=31	=31	=31	=31
*>Letter>A	*>Letter>A	*>Letter>A	*>Letter>A	*>Letter>A	*>Letter>A	*>Letter>A	*>Letter>A
*>Label>Trans	*>Label>Trans	*>Label>Trans	*>Label>Trans	*>Label>Trans	*>Label>Trans	*>Label>Trans	*>Label>Trans
8r	.	2B-M	newline	piano	.	94.181	B-:maj
16f	If	.	.	.	.	.	.
[16f	I	.	.	.	.	.	.
4f_	_	.	.	.	.	.	.
8f]	_	2B-MM	.	piano	.	95.745	B-:maj7
8d	could	.	.	.	.	.	.
16c	reach	.	.	.	.	.	.
[16d	_	.	.	.	.	.	.
8d]	_	.	.	.	.	.	.
=32	=32	=32	=32	=32	=32	=32	=32
8d	you	2A-M	.	piano	.	97.31	A-:maj6/2
8r	.	.	.	.	.	.	.
4r	.	.	.	.	.	.	.
2r	.	2B-MM	.	piano	.	98.874	B-:maj7
=33	=33	=33	=33	=33	=33	=33	=33
1r	.	2B-M	newline	piano	.	100.439	B-:maj
.	.	2B-MM	.	piano	.	101.975	B-:maj7
=34	=34	=34	=34	=34	=34	=34	=34
1r	.	2A-M	.	piano	.	103.511	A-:maj6/2
.	.	2B-MM	.	piano	.	105.047	B-:maj7
=35	=35	=35	=35	=35	=35	=35	=35
*>Letter>B	*>Letter>B	*>Letter>B	*>Letter>B	*>Letter>B	*>Letter>B	*>Letter>B	*>Letter>B
*>Label>Verse	*>Label>Verse	*>Label>Verse	*>Label>Verse	*>Label>Verse	*>Label>Verse	*>Label>Verse	*>Label>Verse
2r	.	1Gm	newline	voice	.	106.584	G:min
8g	the	.	.	.	.	.	.
[8d	dark	.	.	.	.	.	.
4d]	_	.	.	.	.	.	.
=36	=36	=36	=36	=36	=36	=36	=36
4r	.	1Dm	.	voice	.	109.745	D:min
8r	.	.	.	.	.	.	.
16r	.	.	.	.	.	.	.
16d	is	.	.	.	.	.	.
16f	get-	.	.	.	.	.	.
[16g	-ting	.	.	.	.	.	.
16g]	_	.	.	.	.	.	.
4d	light	.	.	.	.	.	.
16r	.	.	.	.	.	.	.
=37	=37	=37	=37	=37	=37	=37	=37
2.r	.	1E-M	newline	voice	.	112.907	E-:maj
8G	and	.	.	.	.	.	.
8G	you're	.	.	.	.	.	.
=38	=38	=38	=38	=38	=38	=38	=38
8B-	dressed	1B-M	.	voice	.	116.093	B-:maj
8c	to	.	.	.	.	.	.
16c	go	.	.	.	A	.	.
[16d	_	.	.	.	.	.	.
8d_	_	.	.	.	.	.	.
8d]	_	.	.	.	.	.	.
8r	.	.	.	.	.	.	.
4r	.	.	.	.	.	.	.
=39	=39	=39	=39	=39	=39	=39	=39
2r	.	1E-M	newline	voice	.	119.28	E-:maj
8r	.	.	.	.	.	.	.
8B-	and	.	.	.	.	.	.
16B-	ne-	.	.	.	.	.	.
[16B-	-ver	.	.	.	.	.	.
16B-]	_	.	.	.	.	.	.
[16B-	said	.	.	.	.	.	.
=40	=40	=40	=40	=40	=40	=40	=40
16B-]	_	1B-M	.	voice	.	122.396	B-:maj/3
[16B-	a	.	.	.	.	.	.
8B-]	_	.	.	.	.	.	.
[4f	word	.	.	.	.	.	.
4f]	_	.	.	.	.	.	.
16r	.	.	.	.	.	.	.
16f	a-	.	.	.	.	.	.
[8e-	-bout	.	.	.	.	.	.
=41	=41	=41	=41	=41	=41	=41	=41
16e-]	_	1Cm	newline	voice	.	125.513	C:min
16d	to-	.	.	.	.	.	.
[8c	-mor-	.	.	.	.	.	.
4c]	_	.	.	.	.	.	.
[2f	-row	.	.	.	A	.	.
=42	=42	=42	=42	=42	=42	=42	=42
4.f]	_	2E-M	.	voice	.	128.742	E-:maj/2
8f	but	.	.	.	.	.	.
4cc	if	2FM	.	voice	.	130.357	F:maj
[4a	I	.	.	.	.	.	.
=43	=43	=43	=43	=43	=43	=43	=43
*>Letter>C	*>Letter>C	*>Letter>C	*>Letter>C	*>Letter>C	*>Letter>C	*>Letter>C	*>Letter>C
*>Label>Chorus	*>Label>Chorus	*>Label>Chorus	*>Label>Chorus	*>Label>Chorus	*>Label>Chorus	*>Label>Chorus	*>Label>Chorus
4.a]	_	1B-MM	newline	voice	.	131.972	B-:maj7
8g	could	.	.	.	.	.	.
8a	reach	.	.	.	.	.	.
[8f	you	.	.	.	.	.	.
4f_	_	.	.	.	.	.	.
=44	=44	=44	=44	=44	=44	=44	=44
8f]	_	1E-MM	.	voice	.	135.25	E-:maj7
8d	some	.	.	.	.	.	.
2g	way	.	.	.	C	.	.
16r	.	.	.	.	.	.	.
16f	If	.	.	.	.	.	.
[8b-	I	.	.	.	.	.	.
=45	=45	=45	=45	=45	=45	=45	=45
8b-]	_	1B-MM	newline	voice	.	138.529	B-:maj7
[8a	knew	.	.	.	.	.	.
8.a]	_	.	.	.	.	.	.
16g	the	.	.	.	.	.	.
4a	mag-	.	.	.	.	.	.
8f	-ic	.	.	.	.	.	.
8r	.	.	.	.	.	.	.
=46	=46	=46	=46	=46	=46	=46	=46
16r	.	1E-MM	.	voice	.	141.704	E-:maj7
[16f	it	.	.	.	.	.	.
16f]	_	.	.	.	.	.	.
16B-	would	.	.	.	.	.	.
[16g	take	.	.	.	C	.	.
16g_	_	.	.	.	.	.	.
8g]	_	.	.	.	.	.	.
4..r	.	.	.	.	.	.	.
16d	to	.	.	.	.	.	.
=47	=47	=47	=47	=47	=47	=47	=47
8f	love	1Dm	newline	voice	.	144.88	D:min
[8f	you	.	.	.	.	.	.
4f]	_	.	.	.	.	.	.
16d	good	.	.	.	.	.	.
8e-	en-	.	.	.	.	.	.
16f	-ough	.	.	.	.	.	.
4r	.	.	.	.	.	.	.
=48	=48	=48	=48	=48	=48	=48	=48
8r	.	1Gm	.	voice	.	148.084	G:min
16d	on	.	.	.	.	.	.
16c	the	.	.	.	.	.	.
16d	out-	.	.	.	.	.	.
8B-	_	.	.	.	.	.	.
[16B-	-side	.	.	.	D	.	.
4B-]	_	.	.	.	.	.	.
4r	.	.	.	.	.	.	.
=49	=49	=49	=49	=49	=49	=49	=49
8r	.	1Dm	newline	voice	.	151.288	D:min
16d	and	.	.	.	.	.	.
8f	make	.	.	.	.	.	.
16f	you	.	.	.	.	.	.
16b-	feel-	.	.	.	.	.	.
16f	_	.	.	.	.	.	.
16g	_	.	.	.	.	.	.
16f	_	.	.	.	.	.	.
8f	-it	.	.	.	.	.	.
8r	.	.	.	.	.	.	.
8r	.	.	.	.	.	.	.
=50	=50	=50	=50	=50	=50	=50	=50
8r	.	1Gm	.	voice	.	154.451	G:min
16d	on	.	.	.	.	.	.
16c	the	.	.	.	.	.	.
16d	in-	.	.	.	.	.	.
16B-	_	.	.	.	.	.	.
8B-	-side	.	.	.	D	.	.
2r	.	.	.	.	.	.	.
=51	=51	=51	=51	=51	=51	=51	=51
8c	may-	2Cm	newline	voice	.	157.613	C:min
16d	-be	.	.	.	.	.	.
16d	I	.	.	.	.	.	.
4e-	_	.	.	.	.	.	.
8e-	could	2Cm	.	voice	.	159.205	C:minmaj7
[8f	make	.	.	.	.	.	.
8f]	_	.	.	.	.	.	.
8f	you	.	.	.	.	.	.
=52	=52	=52	=52	=52	=52	=52	=52
16d	stay	2E-M	.	voice	C	160.798	E-:maj/2
[8.c	_	.	.	.	.	.	.
2.c]	_	.	.	.	.	.	.
.	.	2FM	.	voice	.	162.39	F:maj
=53	=53	=53	=53	=53	=53	=53	=53
*>Letter>A2	*>Letter>A2	*>Letter>A2	*>Letter>A2	*>Letter>A2	*>Letter>A2	*>Letter>A2	*>Letter>A2
*>Label>Outro	*>Label>Outro	*>Label>Outro	*>Label>Outro	*>Label>Outro	*>Label>Outro	*>Label>Outro	*>Label>Outro
2r	.	1B-MM	newline	voice	.	163.982	B-:maj7
16r	.	.	.	.	.	.	.
16f	see	.	.	.	.	.	.
16d	you	.	.	.	.	.	.
[16c	next	.	.	.	.	.	.
8c]	_	.	.	.	.	.	.
[8d	time	.	.	.	.	.	.
=54	=54	=54	=54	=54	=54	=54	=54
4d]	_	1E-MM	.	voice	.	167.144	E-:maj7
4r	.	.	.	.	.	.	.
2r	.	.	.	.	.	.	.
=55	=55	=55	=55	=55	=55	=55	=55
8r	.	1B-MM	newline	voice	.	170.305	B-:maj7
[8b-	I'll	.	.	.	.	.	.
8b-]	_	.	.	.	.	.	.
16a	see-	.	.	.	.	.	.
[16g	-ya	.	.	.	.	.	.
4g]	_	.	.	.	.	.	.
4r	.	.	.	.	.	.	.
=56	=56	=56	=56	=56	=56	=56	=56
8r	.	1E-MM	.	voice	.	173.944	E-:maj7
8a	next	.	.	.	.	.	.
4f	time	.	.	.	.	.	.
2r	.	.	.	.	.	.	.
=57	=57	=57	=57	=57	=57	=57	=57
1r	.	1B-M	newline	voice	.	177.582	B-:maj
r;	.	1r;	.	r	.	184.645	N.C.
r;	.	1r;	.	r	.	189.283	N.C.
*-	*-	*-	*-	*-	*-	*-	*-
!!!BillboardChartDate: 1972/09/23
!!!BillboardPeak: 10
!!!BillboardWeeksOnChart: 15
!!!COC: The 5th Dimension
!!!ENC: Nathaniel Condit-Schultz
!!!EST: Awating manual error checking and editing.
!!!OTL: If I Could Reach You
!!!RDF**chordsym: original McGill chord annotation + (implied pitch class set, with bass pitch in first position)
!!!RDF**harmony: **recip + pitch class of root + harmonic quality
!!!RDF**leadinstrument: original McGill primary instrumentation annotation
!!!RDF**phrase: newline = linebreak in original McGill transcription
!!!RDF**timestamp: McGill audio timestamp in seconds
!!!RDT: 2017/01/12/
!!!SampleActualRank: 47
!!!SampleID#: 0433
!!!SampleTargetRank: 47
